Yaru++/actions/symbolic/view-dual-symbolic.svg

<svg height="16" width="16" xmlns="http://www.w3.org/2000/svg">
  <path d="m0 1v13h6c.975 0 1.602.8 1.602.8l.39.518.4-.51s.652-.793 1.612-.808h5.996v-13h-6c-1.036 0-1.635.465-2 .82-.365-.355-.964-.82-2-.82zm1 1h5c.983 0 1.6.799 1.6.799l.4.535.4-.535s.617-.799 1.6-.799h5v11h-5.008c-1.025.015-1.624.478-1.988.824a2.791 2.791 0 0 0 -2.004-.824h-5zm1 2v1h4v-1zm7 0v1h4v-1zm-7 2v1h4v-1zm7 0v1h4v-1zm-7 2v1h4v-1zm7 0v1h4v-1zm-7 2v1h4v-1zm7 0v1h4v-1z" fill="#808080"/>
</svg>

<svg height="16" width="16" xmlns="http://www.w3.org/2000/svg">
    <path d="M0 1v13h6c.975 0 1.602.8 1.602.8l.39.518.4-.51s.652-.793 1.612-.808H16V1h-6c-1.036 0-1.635.465-2 .82C7.635 1.465 7.036 1 6 1zm1 1h5c.983 0 1.6.799 1.6.799l.4.535.4-.535S9.017 2 10 2h5v11H9.992c-1.025.015-1.624.478-1.988.824A2.791 2.791 0 0 0 6 13H1zm1 2v1h4V4zm7 0v1h4V4zM2 6v1h4V6zm7 0v1h4V6zM2 8v1h4V8zm7 0v1h4V8zm-7 2v1h4v-1zm7 0v1h4v-1z" style="line-height:normal;font-variant-ligatures:none;font-variant-position:normal;font-variant-caps:normal;font-variant-numeric:normal;font-variant-alternates:normal;font-feature-settings:normal;text-indent:0;text-align:start;text-decoration-line:none;text-decoration-style:solid;text-decoration-color:#000;text-transform:none;shape-padding:0;isolation:auto;mix-blend-mode:normal;marker:none" color="#000" font-weight="400" font-family="sans-serif" white-space="normal" overflow="visible" fill="gray"/>
</svg>
